X: 1223
T: Karcığar Seyir
C: Erol Bingöl
O: Turkey
F: http://compmusic.upf.edu/node/140
N: karcigar--seyir--devrihindi--1--erol_bingol
N: makam= karcigar
N: form= seyir
N: usul= devrihindi = 7/4
M: 7/4
L: 1/16
K: C _2/4B _3/4e ^3/4f 
Q: 1/4=108
%%MIDI tuningsystem comma53
c2 d2 d2 d2 ed d4  | Bc d=e dc cB BA A4  | \
w:   |   | 
d2 e2 f2 g3a _b2 ag  | 
w:   | 
fg a2 gf fe ed d4  | g2 a2 a2 ac' ba a4  | \
w:   |   | 
g2 f2 e2 d2 ed c4  | 
w:   | 
d2 e2 f2 g2 ag fe d2  | cd ef dc cB BA A4  | |


